X:1
L:1/8
Q:3/8=100
M:6/8
K:D
 D2 d dcB | ABA AGF | GGG FFF | EEE GFE | D2 d dcB | ABA AGF | Bcd efg | fge d3 :: a3 f3 | 
 BdB BdB | g3 e3 | AcA AcA | ddd BBB | ggg eee | fga agf | edc d3 :|
